img/svg/icon-font/clip.svg

<svg width="22" height="22" viewBox="0 0 22 22" fill="none" xmlns="http://www.w3.org/2000/svg">
<path d="M18.0856 9.35235C17.7449 9.02235 17.2009 9.03107 16.8709 9.37194L8.39132 18.1296C7.62368 18.9048 6.65246 19.3317 5.6561 19.3318C4.66008 19.3318 3.71459 18.9087 2.92302 18.1084C1.07016 16.235 1.58747 14.0348 2.92251 12.6845L11.3891 4.21981C11.7246 3.88435 11.7247 3.34041 11.3892 3.00486C11.0538 2.66932 10.5099 2.66928 10.1743 3.00473L1.70606 11.4711L1.70284 11.4743C0.640904 12.5474 0.0368486 13.9005 0.00174305 15.2844C-0.0356828 16.7601 0.552088 18.1545 1.70142 19.3166C2.80696 20.4344 4.21119 21.05 5.65558 21.05C7.11584 21.0498 8.52294 20.4405 9.61624 19.3345L18.1052 10.5671C18.4353 10.2262 18.4265 9.68235 18.0856 9.35235Z" fill="#4C51CB"/>
<path d="M20.7837 2.17559C19.99 1.37297 19.0347 0.94986 18.0184 0.94986C18.0026 0.94986 17.9867 0.949946 17.9709 0.95016C17.0022 0.962707 16.0519 1.37435 15.2948 2.10916L15.2877 2.11608L5.46051 12.1073C4.47726 13.1008 4.477 14.5434 5.45991 15.5373C5.93657 16.0192 6.54462 16.2846 7.17214 16.2846C7.80726 16.2845 8.41961 16.0191 8.8988 15.5344L15.691 8.59535C16.0229 8.25628 16.0171 7.71238 15.678 7.38045C15.339 7.04856 14.795 7.05436 14.4631 7.39342L7.67384 14.3295C7.5228 14.4822 7.3447 14.5663 7.17214 14.5664C7.00237 14.5664 6.83728 14.4865 6.68147 14.3291C6.22923 13.8718 6.531 13.4682 6.68358 13.314L16.4982 3.33558C17.4361 2.43074 18.6379 2.44934 19.5621 3.38383C20.6577 4.49157 20.3594 5.78424 19.578 6.57401C19.2442 6.91123 19.2471 7.45517 19.5843 7.78895C19.9216 8.12273 20.4655 8.11977 20.7992 7.78259C21.5532 7.02067 21.9795 6.05198 21.9993 5.05515C22.02 4.01178 21.5883 2.98916 20.7837 2.17559Z" fill="#4C51CB"/>
</svg>

<svg width="22" height="22" fill="none" xmlns="http://www.w3.org/2000/svg"><path d="M18.086 9.352a.859.859 0 00-1.215.02L8.39 18.13c-.767.775-1.739 1.202-2.735 1.202-.996 0-1.941-.423-2.733-1.224-1.853-1.873-1.336-4.073 0-5.424l8.466-8.464a.86.86 0 00-1.215-1.215L1.706 11.47l-.003.003C.64 12.547.037 13.9.002 15.284c-.038 1.476.55 2.87 1.7 4.033 1.105 1.117 2.51 1.733 3.954 1.733 1.46 0 2.867-.61 3.96-1.716l8.49-8.767a.859.859 0 00-.02-1.215z" fill="#4C51CB"/><path d="M20.784 2.176C19.99 1.373 19.034.95 18.018.95h-.047c-.969.013-1.92.424-2.676 1.16l-.007.006-9.827 9.991c-.984.994-.984 2.436-.001 3.43.477.482 1.085.748 1.712.748.635 0 1.248-.266 1.727-.75l6.792-6.94a.86.86 0 10-1.228-1.202l-6.79 6.936c-.15.153-.328.237-.5.237-.17 0-.336-.08-.492-.237-.452-.457-.15-.86.003-1.015l9.814-9.978c.938-.905 2.14-.887 3.064.048 1.096 1.108.797 2.4.016 3.19a.86.86 0 101.221 1.209c.754-.762 1.18-1.731 1.2-2.728.021-1.043-.41-2.066-1.215-2.88z" fill="#4C51CB"/></svg>
